packages/icons/svg/Fill/bar-chart-2.svg

<svg fill="none" height="24" viewBox="0 0 24 24" width="24" xmlns="http://www.w3.org/2000/svg"><path clip-rule="evenodd" d="m19 4c-.55 0-1 .45-1 1v15c0 .55.45 1 1 1s1-.45 1-1v-15c0-.55-.45-1-1-1zm-7 3.99993c-.55 0-1 .45-1 1v10.99997c0 .55.45 1 1 1s1-.45 1-1v-10.99997c0-.55-.45-1-1-1zm-8.00003 5.00017c0-.55.45-1 1-1s1 .45 1 1v7c0 .55-.45 1-1 1s-1-.45-1-1z" fill="#6b7280" fill-rule="evenodd"/></svg>

<svg width="24" height="24" viewBox="0 0 24 24" fill="none" xmlns="http://www.w3.org/2000/svg">
<g id="Icon/Fill/bar-chart-2">
<path id="Mask" fill-rule="evenodd" clip-rule="evenodd" d="M19 4C18.45 4 18 4.45 18 5V20C18 20.55 18.45 21 19 21C19.55 21 20 20.55 20 20V5C20 4.45 19.55 4 19 4ZM12 8C11.45 8 11 8.45 11 9V20C11 20.55 11.45 21 12 21C12.55 21 13 20.55 13 20V9C13 8.45 12.55 8 12 8ZM4 13C4 12.45 4.45 12 5 12C5.55 12 6 12.45 6 13V20C6 20.55 5.55 21 5 21C4.45 21 4 20.55 4 20V13Z" fill="#000000"/>
</g>
</svg>
